X:142
T:Waltz. CJF.142
R:Waltz
S:C.J.Fox MS, 1829/33, Beverley,E.Yorks.
B:Kidson Coll.Mitchell Lib.M1805
O:England
A:East Yorkshire
Z:vmp.P J Headford 2000 & 2008
M:3/8
L:1/16
Q:1/8=120
K:D
((3ABc)|d2D2D2|d2D2D2|e4ge|(dcB).A.B.c|\
d2D2D2|d2D2D2|efgedc|d4:|!
|:fd|edcBAG|FAdAfd|cAecg”*”e|f4fd|\
edcBAG|FAdAfd|cAecge|d4:|!
|:f2|^efefef|f2.c2.c2|f2.d2.d2|e4f2|\
^efefef|f2.c2.c2|f2″ D. Capo”.d2.d2|B4:|

